!!!COM: Haydn, Franz Joseph
!!!OTL: String Quartet in E-flat Major
!!!OPS: Opus 20
!!!ONM: No. 1
!!!OMD: Allegro moderato
!!!OMV: 1
!!!SCT: H III:31
!!!SCA: Thematisch-bibliographisches Werkevererzeichnis (A. van Hoboken)
!!!YOR: Trautwein Edition
!!!ENC: Frances Bennion
!!!CDT: 1732/3/31/-1809/5/31/
!!!CNT: Oesterreich
!!!YEC: Copyright (c) 1994, 2000 Center for Computer Assisted Research in the Humanities
!!!YEM: Rights to all derivative editions reserved.
!!!YEM: Refer to licensing agreement for further details.
!!!YEN: United States of America
**tshrm	**tsroot	**kern	**kern	**kern	**kern
*k[b-e-a-]	*k[b-e-a-]	*k[b-e-a-]	*k[b-e-a-]	*k[b-e-a-]	*k[b-e-a-]
*	*	*E-:	*E-:	*E-:	*E-:
*	*	*clefF4	*clefC3	*clefG	*clefG
*M4/4	*M4/4	*M4/4	*M4/4	*M4/4	*M4/4
*E-:	*E-:	*	*	*	*
I	E-	8E-	4g	1r	4b-
.	E-	8EE-	.	.	.
IV	A-	4r	8a-	.	8cc
.	A-	.	8f	.	8a-
I	E-	8E-	8e-	.	4g
.	E-	8EE-	8B-	.	.
IVb	A-	4r	8c	.	8a-
iib	F	.	8A-	.	8f
=2	=2	=2	=2	=2	=2
I	E-	8E-	4.G	1r	4e-
.	E-	8EE-	.	.	.
.	E-	8EE-	.	.	8d
IVc	A-	8EE-	8A-	.	8c
I	E-	8EE-	8G	.	8B-
.	E-	8E-	8G	.	8B-
Vb	B-	8D	8F	.	8B-
I	E-	8C	8E-	.	8B-
=3	=3	=3	=3	=3	=3
V	B-	8BB-	8D	1r	4.B-
V7d	B-	8AA-	8c	.	.
Ib	E-	8GG	8B-	.	.
ii	F	8FF	8A-	.	16c
.	F	.	.	.	16d
I	E-	4EE-	4G	.	16e-
.	E-	.	.	.	16f
.	E-	.	.	.	16g
.	E-	.	.	.	16a-
.	E-	4r	4r	.	16b-
.	E-	.	.	.	16cc
.	E-	.	.	.	16dd
.	E-	.	.	.	16ee-
=4	=4	=4	=4	=4	=4
.	E-	3..r	8r	1r	4b-
.	E-	.	8g	.	.
V7c	B-	.	8f	.	4a-
.	B-	.	8B-	.	.
I	E-	.	4e-	.	4g
.	E-	24r	.	.	.
.	E-	8EE-	.	.	.
.	E-	24GG	4r	.	4r
.	E-	24EE-	.	.	.
.	E-	24GG	.	.	.
.	E-	24BB-	.	.	.
.	E-	24GG	.	.	.
.	E-	24BB-	.	.	.
=5	=5	=5	=5	=5	=5
.	E-	8E-	4g	1r	4b-
.	E-	8EE-	.	.	.
iib	F	4r	8a-	.	8cc
.	F	.	8f	.	8a-
I	E-	8E-	8e-	.	4g
.	E-	8EE-	8B-	.	.
iic	F	4r	8c	.	8a-
.	F	.	8A-	.	8f
=6	=6	=6	=6	=6	=6
Ib	E-	1r	8G	1r	4e-
.	E-	.	8e-	.	.
Vb	B-	.	8d	.	8.f
.	B-	.	8B-	.	.
.	B-	.	.	.	32e-
.	B-	.	.	.	32f
I	E-	.	8e-	.	4g
iiic	G	.	8d	.	.
IIc	F	.	8c	.	8.a
.	F	.	8f	.	.
.	F	.	.	.	32g
.	F	.	.	.	32a
=7	=7	=7	=7	=7	=7
V	B-	4d	8B-	4ff	4b-
.	B-	.	8b-	.	.
I	E-	8e-	4r	8gg	2.r
.	E-	8c	.	8ee-	.
V	B-	8B-	8B-	4dd	.
.	B-	8f	8b-	.	.
Ib	E-	8g	4r	8ee-	.
vib	C	8e-	.	8cc	.
=8	=8	=8	=8	=8	=8
Vb	B-	4.d	8b-	4b-	1r
.	B-	.	8B-	.	.
.	B-	.	8B-	8a	.
Ic	E-	8e-	8B-	8g	.
V	B-	8d	8B-	8f	.
.	B-	8d	8B-	8f	.
IIb	F	8c	8A	8f	.
V	B-	8B-	8G	8f	.
=9	=9	=9	=9	=9	=9
II	F	8A	8F	4.f	1r
V7d/V	F	8g	8E-	.	.
Vb	B-	8f	8D	.	.
vi	C	8e-	8C	16g	.
.	C	.	.	16a	.
V	B-	4d	4B-	16b-	.
.	B-	.	.	16cc	.
.	B-	.	.	16dd	.
.	B-	.	.	16ee-	.
.	B-	4r	4r	16ff	.
.	B-	.	.	16gg	.
.	B-	.	.	16aa	.
.	B-	.	.	16bb-	.
=10	=10	=10	=10	=10	=10
.	B-	1r	1r	4ff	8r
.	B-	.	.	.	8dd
ii7c	F	.	.	4ee-	8cc
.	F	.	.	.	8f
V	B-	.	.	16dd	8b-
.	B-	.	.	16ee-	.
.	B-	.	.	16ff	8B-
.	B-	.	.	16gg	.
V7c	B-	.	.	16aa-	8r
.	B-	.	.	16ff	.
.	B-	.	.	16dd	8B-
.	B-	.	.	16a-	.
=11	=11	=11	=11	=11	=11
I	E-	8E-	4g	4g	4b-
.	E-	8EE-	.	.	.
ii	F	4r	16a-	4r	16cc
.	F	.	16f	.	16a-
.	F	.	16a-	.	16cc
.	F	.	16f	.	16a-
I	E-	4g	8e-	4bb-	4g
.	E-	.	8E-	.	.
ii	F	16a-	4r	16ccc	4r
.	F	16f	.	16aa-	.
.	F	16a-	.	16ccc	.
.	F	16f	.	16aa-	.
=12	=12	=12	=12	=12	=12
I	E-	8e-	4b-	4gg	4gg
.	E-	8E-	.	.	.
iib	F	4r	16cc	4r	16aa-
.	F	.	16a-	.	16ff
.	F	.	16cc	.	16aa-
.	F	.	16a-	.	16ff
I	E-	16e-	16g	16ee-	16ee-
.	E-	16d	16dd	16dd	16dd
.	E-	16e-	16ee-	16ee-	16ee-
.	E-	16B-	16b-	16b-	16b-
ii	F	16A-	16a-	16a-	16a-
.	F	16G	16g	16g	16g
ii7d	F	16F	16f	16f	16f
.	F	16E-	16e-	16e-	16e-
=13	=13	=13	=13	=13	=13
Vb	B-	8D	8d	8d	8d
.	B-	8B-	8b-	8b-	8b-
.	B-	8B-	8b-	8b-	8b-
.	B-	8B-	8b-	8b-	8b-
I	E-	16e-	16ee-	16ee-	16ee-
.	E-	16d	16dd	16dd	16dd
.	E-	16e-	16ee-	16ee-	16ee-
.	E-	16B-	16b-	16b-	16b-
ii	F	16A-	16a-	16a-	16a-
.	F	16G	16g	16g	16g
ii7d	F	16F	16f	16f	16f
.	F	16E-	16e-	16e-	16e-
=14	=14	=14	=14	=14	=14
Vb	B-	2D	4d	4d	8d
.	B-	.	.	.	8b-
.	B-	.	4f	2b-	8b-
.	B-	.	.	.	8b-
vi	C	4C	4g	.	8ee-
.	C	.	.	.	8ee-
V7/V	F	4F	8c	8a	8ee-
.	F	.	8a	8cc	8ee-
=15	=15	=15	=15	=15	=15
vi7d	C	[2BB-	2a	2cc	2ee-
V	B-	4BB-]	4b-	4b-	4dd
.	r	4r	4r	4r	4r
=16	=16	=16	=16	=16	=16
iii	G	2r	4g	4b-	2r
iib	F	.	8a-	8cc	.
.	F	.	8f	8a-	.
V7d/ii	C	[2B-	[2e	[2g	4.dd-
.	C	.	.	.	8cc
=17	=17	=17	=17	=17	=17
.	C	2B-]	2e]	2g]	[2cc
iib	F	4A-	4f	4a-	16cc]
.	F	.	.	.	16ee
.	F	.	.	.	16ff
.	F	.	.	.	16gg
.	F	4r	4r	4r	16aa-
.	F	.	.	.	16gg
.	F	.	.	.	16bb-
.	F	.	.	.	16aa-
=18	=18	=18	=18	=18	=18
.	F	1r	1r	1r	8ccc
.	F	.	.	.	16r
.	F	.	.	.	16bb-
.	F	.	.	.	8aa-
.	F	.	.	.	16r
.	F	.	.	.	16gg
.	F	.	.	.	8ff
.	r	.	.	.	4r
.	r	.	.	.	16r
.	F	.	.	.	16gg
=19	=19	=19	=19	=19	=19
.	F	2r	2r	2r	8aa-
.	r	.	.	.	16r
.	F	.	.	.	16gg
.	F	.	.	.	8ff
ii7d	F	.	.	.	16r
.	F	.	.	.	16ee-
iio7	F	4.A-	4.f	4.cc-	4.dd
.	E-	8G	8g	8b-	8ee-
=20	=20	=20	=20	=20	=20
.	E-	4G	4g	4b-	[4ee-
.	r	2.r	2.r	2.r	16ee-]
.	E-	.	.	.	16dd
.	E-	.	.	.	16ff
.	E-	.	.	.	16ee-
.	E-	.	.	.	8gg
.	E-	.	.	.	8gg
.	E-	.	.	.	8gg
.	E-	.	.	.	8gg
=21	=21	=21	=21	=21	=21
V7b	B-	4D	4f	4a-	4b
vib	C	8E-	8e-	8g	8cc
.	C	8C	8c	16ee-	16gg
.	C	.	.	16cc	16ee-
*B-:	*B-:	*	*	*	*
Ic	B-	4.F	2f	4b-	4dd
V	F	.	.	8a	8cc
Ib	B-	8D	.	8b-	32b-
.	B-	.	.	.	16.bb-
=22	=22	=22	=22	=22	=22
IV	E-	4.E-	2g	4.b-	32aa
.	E-	.	.	.	16.gg
.	E-	.	.	.	32ff
.	E-	.	.	.	16.ee-
.	E-	.	.	.	32dd
.	E-	.	.	.	16.cc
vi	G	8E	.	16b-	32gg
.	G	.	.	.	16.b-
.	G	.	.	16d	.
Ic	B-	8F	8f	4d	4b-
.	B-	8FF	8F	.	.
V	F	8FF	8F	8c	8a
Ic	B-	8FF	8F	8B-	8g
=23	=23	=23	=23	=23	=23
.	B-	8FF	4.F	4B-	4g
.	B-	8F	.	.	.
V	F	8F	.	8A	8f
V7/V	C	8F	8B-	8G	8e
Ic	B-	8FF	4.B-	4.G	4.e
.	B-	8F	.	.	.
.	B-	8F	.	.	.
vi7d	G	8F	16G	16B-	16g
.	F	.	16A	16A	16f
=24	=24	=24	=24	=24	=24
V	F	8FF	8A	4.A	4.f
.	F	8F	4c	.	.
V7d	F	8E-	.	.	.
.	F	8EE-	8c	8f	8A
Ib	B-	4DD	4B-	4f	16B-
.	B-	.	.	.	16f
.	B-	.	.	.	16d
.	B-	.	.	.	16b-
.	B-	4r	4r	4r	16f
.	B-	.	.	.	16dd
.	B-	.	.	.	16b-
.	B-	.	.	.	16ff
=25	=25	=25	=25	=25	=25
.	B-	1r	1r	1r	16dd
.	B-	.	.	.	16bb-
.	B-	.	.	.	16ff
.	B-	.	.	.	16ddd
.	B-	.	.	.	16bb-
.	B-	.	.	.	16fff
.	B-	.	.	.	16eee-
.	B-	.	.	.	16ddd
.	B-	.	.	.	16ccc
.	B-	.	.	.	16bb-
.	B-	.	.	.	16aa
.	B-	.	.	.	16bb-
.	B-	.	.	.	16aa
.	B-	.	.	.	16bb-
.	B-	.	.	.	16aa
.	B-	.	.	.	16bb-
=26	=26	=26	=26	=26	=26
V7b/IV	B-	2d	4f	[2b-	4aa-
.	B-	.	4b-	.	4ff#
IV	E-	2e-	4g	8b-]	4.gg
.	E-	.	.	8b	.
iib	C	.	4r	8cc	.
IV	E-	.	.	8r	16ff
.	E-	.	.	.	16ee-
=27	=27	=27	=27	=27	=27
I	B-	3..r	2r	2r	16dd
.	B-	.	.	.	16cc
.	B-	.	.	.	16b
.	B-	.	.	.	16cc
V	F	.	.	.	16b
.	F	.	.	.	16cc
V7c	F	.	.	.	16ee-
.	F	.	.	.	16cc
I	B-	.	8r	8r	4.b-
.	r	24r	.	.	.
i	B-	8E	8g	8d-	.
Ic	B-	8F	8f	8d	.
V7	F	8F	8A	8e-	8cc
=28	=28	=28	=28	=28	=28
I	B-	4BB-	4B-	16d	16r
.	B-	.	.	16b-	16dd
.	B-	.	.	16ee-	16gg
.	B-	.	.	16dd	16ff
.	B-	16r	16r	8dd	8ff
.	B-	16B-	16d	.	.
.	B-	16e-	16g	8.r	8.r
.	B-	16d	16f	.	.
.	B-	4d	8f	.	.
.	B-	.	.	16b-	16dd
.	B-	.	8.r	16ee-	16gg
.	B-	.	.	16dd	16ff
.	B-	16r	.	8dd	8ff
.	B-	16B-	16d	.	.
.	B-	16e-	16g	8r	8r
.	B-	16d	16f	.	.
=29	=29	=29	=29	=29	=29
.	B-	4d	8f	16r	16r
.	B-	.	.	16b-	16dd
vic	G	.	8.r	16aa-	16ccc
.	G	.	.	16gg	16bb-
.	G	16r	.	8gg	8bb-
.	G	16B-	16d	.	.
v7c	F	16c	16e-	8ff	8aa-
.	F	16d	16f	.	.
iib	C	4e-	4g	4ee-	16gg
.	C	.	.	.	16eee-
.	C	.	.	.	16ddd
.	C	.	.	.	16ccc
.	C	16r	4r	4r	8ggg
.	C	16CC	.	.	.
.	C	16EE-	.	.	8r
.	C	16CC	.	.	.
=30	=30	=30	=30	=30	=30
.	C	16GG	2r	2r	2r
.	C	16EE-	.	.	.
.	C	16C	.	.	.
.	C	16GG	.	.	.
.	C	16E-	.	.	.
.	C	16C	.	.	.
.	C	16G	.	.	.
.	C	16E-	.	.	.
.	C	4c	[2cc	16r	[2ee-
.	C	.	.	16g	.
.	C	.	.	16ee-	.
.	C	.	.	16g	.
iio7	C	4B-	.	16r	.
.	C	.	.	16g-	.
iio7	C	.	.	16ee-	.
.	C	.	.	16g-	.
=31	=31	=31	=31	=31	=31
Vb	F	4A	4cc]	16r	4ee-]
.	F	.	.	16f	.
V7b	F	.	.	16ee-	.
.	F	.	.	16f	.
I	B-	4B-	4b-	16r	4dd
.	B-	.	.	16f	.
.	B-	.	.	16dd	.
.	B-	.	.	16f	.
iib	C	4E-	8e-	8.g	16cc
.	C	.	.	.	16gg
.	C	.	8g	.	16ee-
.	C	.	.	16e-	16cc
Ic	B-	8F	8f	8d	8b-
V7	F	8F	8e-	8c	8a
=32	=32	=32	=32	=32	=32
I	B-	8B-	4d	4B-	4b-
.	B-	8BB-	.	.	.
.	B-	16d	8r	2.r	2.r
.	B-	16B-	.	.	.
V7d/V	C	16g	8B-	.	.
.	C	16e	.	.	.
Vb	F	8f	4A	.	.
.	F	8f	.	.	.
IIc	C	16e	8G	.	.
.	C	16g	.	.	.
V7/V	C	16a	8C	.	.
.	C	16b-	.	.	.
=33	=33	=33	=33	=33	=33
Ic	B-	8b-	4F	1r	1r
V	F	8a	.	.	.
iib	C	16G	8r	.	.
.	C	16E-	.	.	.
.	C	16c	8E-	.	.
.	C	16A	.	.	.
Ib	B-	16B-	4D	.	.
.	B-	16c	.	.	.
.	B-	16.d	.	.	.
.	B-	32F	.	.	.
IV	E-	16G	8E-	.	.
.	E-	16E-	.	.	.
Vc	F	16C	8F	.	.
.	F	16F	.	.	.
=34	=34	=34	=34	=34	=34
I	B-	8BB-	4B-	1r	4r
.	B-	8B-	.	.	.
.	B-	2.r	8r	.	16dd
.	B-	.	.	.	16b-
V7d/V	C	.	8b-	.	16gg
.	C	.	.	.	16ee
Vb	F	.	8a	.	8ff
.	F	.	8A	.	8ff
IIc	C	.	8G	.	16ee
.	C	.	.	.	16gg
V7/V	C	.	8c	.	16aa
.	C	.	.	.	16bb-
=35	=35	=35	=35	=35	=35
Ic	B-	1r	8f	1r	8bb-
V	F	.	8F	.	8aa
IV	E-	.	8r	.	16g
.	E-	.	.	.	16e-
V7d	F	.	8e-	.	16cc
.	F	.	.	.	16a
Ib	B-	.	8d	.	16b-
.	B-	.	.	.	16cc
.	B-	.	8D	.	16.dd
.	B-	.	.	.	32f
IV	E-	.	8E-	.	16g
.	E-	.	.	.	16e-
V	F	.	8F	.	16c
.	F	.	.	.	16A
=36	=36	=36	=36	=36	=36
I	B-	16BB-	4B-	4r	4B-
.	B-	16B-	.	.	.
.	B-	16F	.	.	.
.	B-	16D	.	.	.
.	B-	8BB-	4r	16dd	16ff
.	B-	.	.	16b-	16dd
IVc	E-	8BB-	.	16ee-	16gg
.	E-	.	.	16cc	16ee-
I	B-	8BB-	16B-	8.dd	8.ff
.	B-	.	16d	.	.
.	B-	8BB-	16f	.	.
.	B-	.	16b-	16f	16dd
IVc	E-	8BB-	8B-	16g	16ee-
.	E-	.	.	16e-	16cc
I	B-	8BB-	8r	16d	16b-
.	B-	.	.	16c	16a
=37	=37	=37	=37	=37	=37
.	B-	16BB-	2r	8.d	8.b-
.	B-	16B-	.	.	.
.	B-	16F	.	.	.
.	B-	16D	.	16b-	16dd
.	B-	8BB-	.	16dd	16ff
.	B-	.	.	16b-	16dd
IVc	E-	8BB-	.	16ee-	16gg
.	E-	.	.	16cc	16ee-
I	B-	8BB-	16B-	8.dd	8.ff
.	B-	.	16d	.	.
.	B-	8BB-	16f	.	.
.	B-	.	16b-	16f	16dd
IVc	E-	8BB-	8B-	16g	16ee-
.	E-	.	.	16e-	16cc
I	B-	8BB-	8r	16d	16b-
.	B-	.	.	16c	16a
=38	=38	=38	=38	=38	=38
.	B-	16BB-	2r	4d	[4b-
.	B-	16B-	.	.	.
.	B-	16F	.	.	.
.	B-	16D	.	.	.
.	B-	8BB-	.	2.r	16b-]
.	B-	.	.	.	16a
.	B-	3..r	.	.	16cc
.	B-	.	.	.	16b-
.	B-	.	16b-	.	16dd
.	B-	.	16a	.	16cc
.	B-	.	16cc	.	16ee-
.	B-	.	16b-	.	16dd
V7c	F	.	16dd	.	16ff
.	F	.	16cc	.	16ee-
vi7c	G	.	16ee-	.	16gg
.	G	.	16dd	.	16ff
.	r	24r	.	.	.
=39	=39	=39	=39	=39	=39
v	F	1r	4.ff	1r	4.aa-
iib	C	.	8ee-	.	8gg
Ib	B-	.	8dd	.	8ff
ii	C	.	8cc	.	8ee-
I	B-	.	8b-	.	8dd
vb	F	.	8a-	.	8cc
=40	=40	=40	=40	=40	=40
.	F	1r	4.ff	1r	4.aa-
iib	C	.	8ee-	.	8gg
iii	D	.	8dd	.	8ff
ii	C	.	8cc	.	8ee-
*G:	*G:	*	*	*	*
Ib	G	.	8b	.	8dd
Chr	F	.	8a	.	8cc
=41	=41	=41	=41	=41	=41
I	G	4G	8g	[1gg	8b
.	G	.	8b	.	8dd
iv	C	4r	8cc	.	8ee-
.	C	.	8f#	.	8cc
I	G	4G	8g	.	8b
.	G	.	8d	.	8b
ivb	C	4r	8e-	.	8cc
.	C	.	8c	.	8f#
=42	=42	=42	=42	=42	=42
I	G	4GG	8B	8gg]	[1g
.	G	.	8B	8dd	.
iv	C	4r	8c	8ee-	.
.	C	.	8F#	8cc	.
I	G	4GG	8G	8b	.
.	G	.	8d	8b	.
ivb	C	4r	8e-	8cc	.
.	C	.	8c	8f#	.
=43	=43	=43	=43	=43	=43
I	G	4GG	4B	4g	8.g]
.	G	.	.	.	16f#
.	G	2.r	2.r	2.r	8.g
.	G	.	.	.	16f#
.	G	.	.	.	4g
*E-:	*E-:	*	*	*	*
iii	G	.	.	.	16g
.	G	.	.	.	16a-
.	G	.	.	.	16g
.	G	.	.	.	16a-
=44	=44	=44	=44	=44	=44
I	E-	8E-	1r	4g	4b-
.	E-	8EE-	.	.	.
iib	F	4r	.	8a-	8cc
.	F	.	.	8f	8a-
I	E-	8E-	.	8e-	4g
.	E-	8EE-	.	8B-	.
iic	F	4r	.	8c	8a-
.	F	.	.	8A-	8f
=45	=45	=45	=45	=45	=45
I	E-	8E-	1r	4.G	4e-
.	E-	8EE-	.	.	.
.	E-	8EE-	.	.	8d
IVc	A-	8EE-	.	8A-	8c
I	E-	8EE-	.	8G	8B-
.	E-	8E-	.	8g	8B-
Vb	B-	8D	.	8f	8B-
I	E-	8C	.	8e-	8B-
=46	=46	=46	=46	=46	=46
V	B-	8BB-	2r	8d	4.B-
V7d	B-	8AA-	.	8c	.
Ib	E-	8GG	.	8B-	.
ii	F	8FF	.	8A-	16c
.	F	.	.	.	16d
I	E-	4EE-	8r	8G	8e-
IVc	A-	.	8a-	8cc	8ee-
Ib	E-	4r	8g	8b-	8ee-
ii7	F	.	8f	8a-	8ee-
=47	=47	=47	=47	=47	=47
I	E-	3..r	8e-	8g	4.ee-
V7d/IV	E-	.	8d-	8f	.
vi	C	.	8c	8e-	.
v	B-	.	8B-	8d-	16ff
.	B-	.	.	.	16gg
*Fm:	*Fm:	*	*	*	*
ib	F	.	4A-	8c	8aa-
.	r	24r	.	.	.
.	F	8f	.	8a-	8cc
Vb	C	8e	4r	8g	8cc
i	F	8d	.	8f	8cc
=48	=48	=48	=48	=48	=48
v	C	8c	2r	8e-	4.cc
v7d	C	8B-	.	8d-	.
ib	F	8A-	.	8c	.
ii	G	8G	.	8B-	16dd
.	G	.	.	.	16ee
i	F	4F	8r	8A-	8ff
ivc	B-	.	8b-	8dd-	8ff
ib	F	4r	8a-	8cc	8ff
iv	B-	.	8g	8b-	8ff
=49	=49	=49	=49	=49	=49
i	F	1r	8f	8a-	4.ff
i7d	F	.	8e-	8g	.
ivb	B-	.	8d-	8f	.
v	C	.	8c	8e-	16gg
.	C	.	.	.	16aa-
iv	B-	.	8B-	8d-	8bb-
ib	F	.	8A-	8c	8ccc
iv	B-	.	8G	8B-	8ddd-
iv7c	B-	.	8F	8A-	8ddd-
=50	=50	=50	=50	=50	=50
Vb	C	2r	4E	4G	8ddd-
.	C	.	.	.	4ccc
.	C	.	4e	4g	.
V7b	C	.	.	.	4bb-
i	F	16FF	8f	8a-	.
.	F	16C	.	.	.
.	F	16AA-	8cc	8aa-	8aa-
.	F	16F	.	.	.
.	F	16C	8cc	8aa-	4r
.	F	16A-	.	.	.
.	F	16F	8cc	8aa-	.
.	F	16c	.	.	.
=51	=51	=51	=51	=51	=51
.	F	4A-	[1cc	2aa-	16c
.	F	.	.	.	16a-
.	F	.	.	.	16f
.	F	.	.	.	16cc
.	F	4r	.	.	16a-
.	F	.	.	.	16ff
.	F	.	.	.	16cc
.	F	.	.	.	16aa-
V7b	C	16EE	.	8gg	4bb-
.	C	16C	.	.	.
.	C	16GG	.	8bb-	.
.	C	16E	.	.	.
.	C	16C	.	8bb-	4r
.	C	16G	.	.	.
.	C	16E	.	8bb-	.
.	C	16c	.	.	.
=52	=52	=52	=52	=52	=52
.	C	4CC	1cc_	2bb-	16e
.	C	.	.	.	16cc
.	C	.	.	.	16g
.	C	.	.	.	16ee
.	C	4r	.	.	16cc
.	C	.	.	.	16gg
.	C	.	.	.	16ee
.	C	.	.	.	16bb-
i	F	16FF	.	[2aa-	4aa-
.	F	16C	.	.	.
.	F	16AA-	.	.	.
.	F	16F	.	.	.
.	F	16C	.	.	4r
.	F	16A-	.	.	.
.	F	16F	.	.	.
.	F	16c	.	.	.
=53	=53	=53	=53	=53	=53
.	F	4A-	2cc]	1aa-_	16c
.	F	.	.	.	16a-
.	F	.	.	.	16f
.	F	.	.	.	16cc
.	F	4r	.	.	16a-
.	F	.	.	.	16ff
.	F	.	.	.	16cc
.	F	.	.	.	16aa-
*E-:	*E-:	*	*	*	*
V7b	B-	16DD	[2b-	.	4aa-
.	B-	16BB-	.	.	.
.	B-	16FF	.	.	.
.	B-	16D	.	.	.
.	B-	16BB-	.	.	4r
.	B-	16F	.	.	.
.	B-	16D	.	.	.
.	B-	16B-	.	.	.
=54	=54	=54	=54	=54	=54
.	B-	4D	1b-_	2aa-]	16B-
.	B-	.	.	.	16f
.	B-	.	.	.	16d
.	B-	.	.	.	16b-
.	B-	4r	.	.	16f
.	B-	.	.	.	16dd
.	B-	.	.	.	16b-
.	B-	.	.	.	16aa-
I	E-	16EE-	.	[2gg	4gg
.	E-	16BB-	.	.	.
.	E-	16GG	.	.	.
.	E-	16E-	.	.	.
.	E-	16BB-	.	.	4r
.	E-	16G	.	.	.
.	E-	16E-	.	.	.
.	E-	16B-	.	.	.
=55	=55	=55	=55	=55	=55
.	E-	4E-	2b-]	2gg]	16B-
.	E-	.	.	.	16g
.	E-	.	.	.	16e-
.	E-	.	.	.	16b-
.	E-	4r	.	.	16g
.	E-	.	.	.	16ee-
.	E-	.	.	.	16b-
.	E-	.	.	.	16gg
*Cm:	*Cm:	*	*	*	*
V7b	G	16BB	[2g	[2ff	4ff
.	G	16G	.	.	.
.	G	16D	.	.	.
.	G	16B	.	.	.
.	G	16G	.	.	4r
.	G	16d	.	.	.
.	G	16B	.	.	.
.	G	16g	.	.	.
=56	=56	=56	=56	=56	=56
.	G	4B	1g_	2ff]	16B
.	G	.	.	.	16g
.	G	.	.	.	16d
.	G	.	.	.	16b
.	G	4r	.	.	16g
.	G	.	.	.	16dd
.	G	.	.	.	16b
.	G	.	.	.	16ff
i	C	16CC	.	[2ee-	4ee-
.	C	16GG	.	.	.
.	C	16EE-	.	.	.
.	C	16C	.	.	.
.	C	16GG	.	.	4r
.	C	16E-	.	.	.
.	C	16C	.	.	.
.	C	16G	.	.	.
=57	=57	=57	=57	=57	=57
.	C	4E-	2g]	2ee-]	16c
.	C	.	.	.	16g
.	C	.	.	.	16e-
.	C	.	.	.	16cc
.	C	4r	.	.	16g
.	C	.	.	.	16ee-
.	C	.	.	.	16cc
.	C	.	.	.	16gg
V7d	G	4F	2b	16r	4aa-
.	G	.	.	16d	.
.	G	.	.	16b	.
.	G	.	.	16d	.
.	G	4f	.	16r	4r
.	G	.	.	16d	.
.	G	.	.	16b	.
.	G	.	.	16d	.
=58	=58	=58	=58	=58	=58
i	C	4e-	2cc	16r	4gg
.	C	.	.	16c	.
.	C	.	.	16cc	.
.	C	.	.	16c	.
.	C	4E-	.	16r	16ff
.	C	.	.	16c	16ee-
.	C	.	.	16cc	16dd
.	C	.	.	16c	16cc
V7d	G	4F	2b	16r	2aa-
.	G	.	.	16d	.
.	G	.	.	16b	.
.	G	.	.	16d	.
iv	F	4f	.	16r	.
.	F	.	.	16d	.
.	F	.	.	16b	.
.	F	.	.	16d	.
=59	=59	=59	=59	=59	=59
i	C	4e-	4.cc	16r	4gg
.	C	.	.	16c	.
.	C	.	.	16cc	.
.	C	.	.	16c	.
.	C	4E-	.	16r	16ff
.	C	.	.	16c	16ee-
.	C	.	8g	16cc	16dd
.	C	.	.	16c	16cc
iv	F	4F	4f	4a-	16dd-
.	F	.	.	.	16dd-
.	F	.	.	.	16cc
.	F	.	.	.	16dd-
i	C	4r	4r	4r	16ee-
.	C	.	.	.	16dd-
viib	B-	.	.	.	16ff
.	B-	.	.	.	16dd-
=60	=60	=60	=60	=60	=60
ivb	F	3..r	2r	2r	4aa-
V7d	G	.	.	.	16gg
.	G	.	.	.	16ff
.	G	.	.	.	16ee-
.	G	.	.	.	16dd
i	C	.	8r	8r	4.cc
.	C	24r	.	.	.
Dim	C	8F#	8A	8e-	.
ic	C	8G	8G	8r	.
V7	G	8GG	8G	8f	8dd
=61	=61	=61	=61	=61	=61
i	C	4C	4G	16e-	16r
.	C	.	.	16cc	16ee-
.	C	.	.	16ff	16aa-
.	C	.	.	16ee-	16gg
.	C	16r	16r	8ee-	8gg
.	C	16c	16e-	.	.
.	C	16f	16a-	8.r	8.r
.	C	16e-	16g	.	.
.	C	8e-	8g	.	.
.	C	.	.	16cc	16ee-
.	C	8.r	8.r	16ff	16aa-
.	C	.	.	16ee-	16gg
.	C	.	.	8ee-	8gg
.	C	16c	16e-	.	.
.	C	16f	16a-	8r	8r
.	C	16e-	16g	.	.
=62	=62	=62	=62	=62	=62
.	C	4e-	4g	4.r	16r
.	C	.	.	.	16cc
.	C	.	.	.	16bb
.	C	.	.	.	16ccc
.	C	8r	8r	.	8ccc
.	C	8C	8g	8g	8ee-
V7c/iii	B-	4F	4f	4a-	8dd
iv	F	.	.	.	8aa-
V	G	4G	8r	8r	8gg
.	G	.	8G	8d	8b
=63	=63	=63	=63	=63	=63
i	C	4e-	8C	4g	4cc
.	C	.	8C	.	.
ivc	F	8f	8C	8a-	2.r
.	F	8d	8C	8f	.
i	C	8c	8C	4e-	.
.	C	8g	8C	.	.
ivc	F	8a-	8C	8f	.
.	F	8f	8C	8d	.
=64	=64	=64	=64	=64	=64
i	C	8e-	8C	4e-	4cc
.	C	8c	8C	.	.
*A-:	*A-:	*	*	*	*
V7/vi	C	8B-	8C	4e	8dd-
.	C	8G	8C	.	8b-
vi	F	8F	4cc	4f	4a-
.	F	8FF	.	.	.
iic	B-	8FF	8dd-	4r	8b-
.	B-	8FF	8b-	.	8g
=65	=65	=65	=65	=65	=65
vi	F	8FF	4a-	4c	4f
.	F	8FF	.	.	.
iic	B-	8FF	8b-	8d-	4r
.	B-	8FF	8g	8B-	.
vi	F	8FF	4f	4A-	4ff
.	F	8FF	.	.	.
V7/ii	F	8FF	8e-	4A	8gg-
.	F	8FF	8c	.	8ee-
=66	=66	=66	=66	=66	=66
ii	B-	8BB-	4B-	4f	4dd-
.	B-	8BB-	.	.	.
vc	E-	8BB-	4r	8g-	8ee-
.	E-	8BB-	.	8e-	8cc
ii	B-	8BB-	4b-	4d-	4b-
.	B-	8BB-	.	.	.
II	B-	8BB-	8cc-	4d	4r
V7/V	B-	8BB-	8a-	.	.
=67	=67	=67	=67	=67	=67
V	E-	8E-	2g	4e-	4ee-
.	E-	8E-	.	.	.
vi7d	F	8E-	.	4r	8ff
V7	E-	8E-	.	.	8dd-
Ic	A-	8E-	4a-	4e-	4cc
.	A-	8E-	.	.	.
V7	E-	8E-	4r	8f	8dd-
.	E-	8E-	.	8d-	8b-
=68	=68	=68	=68	=68	=68
I	A-	8A-	2r	4.c	4a-
.	A-	8AA-	.	.	.
.	A-	8AA-	.	.	8g
IVc	D-	8AA-	.	8d-	8f
I	A-	8AA-	8r	4c	8e-
.	A-	8A-	8c	.	8e-
Vb	E-	8G	8B-	4r	8e-
I	A-	8F	8A-	.	8e-
=69	=69	=69	=69	=69	=69
V	E-	8E-	8G	2r	4.e-
V7d	E-	8D-	8F	.	.
Ib	A-	8C	8E-	.	.
ii	B-	8BB-	8D-	.	16f
.	B-	.	.	.	16g
I	A-	4AA-	8C	8r	8a-
.	A-	.	8a-	8cc	8ee-
Vb	E-	4r	8g	8b-	8ee-
I	A-	.	8f	8a-	8ee-
=70	=70	=70	=70	=70	=70
V	E-	1r	8e-	8g	4.ee-
V7d	E-	.	8d-	8f	.
Ib	A-	.	8c	8e-	.
ii	B-	.	8B-	8d-	16ff
.	B-	.	.	.	16gg
I	A-	.	4A-	4c	8aa-
.	A-	.	.	.	16r
.	A-	.	.	.	16bb-
.	A-	.	4r	4r	8ccc
Vc	E-	.	.	.	16r
.	E-	.	.	.	16bb-
=71	=71	=71	=71	=71	=71
I	A-	2r	2r	2r	8aa-
Vb	r	.	.	.	16r
.	E-	.	.	.	16gg
*E-:	*E-:	*	*	*	*
Vc	B-	.	.	.	8ff
I	E-	.	.	.	16r
.	E-	.	.	.	16ee-
V7d	B-	4A-	4f	8b-	8dd
.	r	.	.	4r	4r
.	r	4r	4r	.	.
.	r	.	.	16r	16r
.	E-	.	.	16gg	16bb-
=72	=72	=72	=72	=72	=72
ii	F	1r	1r	8ff	8aa-
.	r	.	.	4r	4r
.	E-	.	.	16r	16r
.	E-	.	.	16ee-	16gg
Vb	B-	.	.	8dd	8ff
IVb	A-	.	.	16r	16r
.	A-	.	.	16cc	16ee-
V	B-	.	.	8b-	8dd
IV	A-	.	.	16r	16r
.	A-	.	.	16a-	16cc
=73	=73	=73	=73	=73	=73
I	E-	8E-	2r	4g	4b-
.	E-	8EE-	.	.	.
IV	A-	4r	.	8a-	8cc
.	A-	.	.	8f	8a-
I	E-	8E-	4B-	4e-	4g
.	E-	8EE-	.	.	.
IVb	A-	4r	8c	4r	8a-
iib	F	.	8A-	.	8f
=74	=74	=74	=74	=74	=74
I	E-	8E-	4.G	1r	4e-
.	E-	8EE-	.	.	.
.	E-	8EE-	.	.	8d
IVc	A-	8EE-	8A-	.	8c
I	E-	8EE-	8G	.	8B-
.	E-	8E-	8G	.	8B-
Vb	B-	8D	8F	.	8B-
I	E-	8C	8E-	.	8B-
=75	=75	=75	=75	=75	=75
V	B-	8BB-	8D	1r	4.B-
V7d	B-	8AA-	8c	.	.
Ib	E-	8GG	8B-	.	.
ii	F	8FF	8A-	.	16c
.	F	.	.	.	16d
I	E-	4EE-	4G	.	16e-
.	E-	.	.	.	16f
.	E-	.	.	.	16g
.	E-	.	.	.	16a-
.	E-	4r	4r	.	16b-
.	E-	.	.	.	16cc
.	E-	.	.	.	16dd
.	E-	.	.	.	16ee-
=76	=76	=76	=76	=76	=76
.	E-	3..r	8r	1r	4b-
.	E-	.	8g	.	.
V7c	B-	.	8f	.	4a-
.	B-	.	8B-	.	.
I	E-	.	4e-	.	4g
.	r	24r	.	.	.
.	E-	8EE-	.	.	.
.	E-	24GG	4r	.	4r
.	E-	24EE-	.	.	.
.	E-	24GG	.	.	.
.	E-	24BB-	.	.	.
.	E-	24GG	.	.	.
.	E-	24BB-	.	.	.
=77	=77	=77	=77	=77	=77
.	E-	4E-	4g	4b-	2r
ii	F	4r	16a-	16cc	.
.	F	.	16f	16a-	.
.	F	.	16a-	16cc	.
.	F	.	16f	16a-	.
I	E-	4g	8e-	4g	4bb-
.	E-	.	8E-	.	.
ii	F	16a-	4r	4r	16ccc
.	F	16f	.	.	16aa-
.	F	16a-	.	.	16ccc
.	F	16f	.	.	16aa-
=78	=78	=78	=78	=78	=78
I	E-	8e-	4b-	4gg	4gg
.	E-	8E-	.	.	.
iib	F	4r	16cc	16aa-	4r
.	F	.	16a-	16ff	.
.	F	.	16cc	16aa-	.
.	F	.	16a-	16ff	.
I	E-	16e-	16g	16ee-	16ee-
.	E-	16d	16dd	16dd	16dd
.	E-	16e-	16ee-	16ee-	16ee-
.	E-	16B-	16b-	16b-	16b-
ii	F	16A-	16a-	16a-	16a-
.	F	16G	16g	16g	16g
ii7d	F	16F	16f	16f	16f
.	F	16E-	16e-	16e-	16e-
=79	=79	=79	=79	=79	=79
Vb	B-	8D	8d	8d	8d
.	B-	8B-	8b-	8b-	8b-
.	B-	8B-	8b-	8b-	8b-
.	B-	8B-	8b-	8b-	8b-
I	E-	16e-	16ee-	16ee-	16ee-
.	E-	16d	16dd	16dd	16dd
.	E-	16e-	16ee-	16ee-	16ee-
.	E-	16B-	16b-	16b-	16b-
ii	F	16A-	16a-	16a-	16a-
.	F	16G	16g	16g	16g
ii7d	F	16F	16f	16f	16f
.	F	16E-	16e-	16e-	16e-
=80	=80	=80	=80	=80	=80
Vb	B-	2D	8d	8d	8d
.	B-	.	8b-	8b-	8b-
.	B-	.	8b-	8b-	8b-
.	B-	.	8b-	8b-	8b-
vi7	C	4C	4b-	2ee-	16ee-
.	C	.	.	.	16dd
.	C	.	.	.	16ee-
.	C	.	.	.	16g
ii	F	4F	[4a-	.	16a-
.	F	.	.	.	16aa-
ii7	F	.	.	.	16ff
.	F	.	.	.	16ee-
=81	=81	=81	=81	=81	=81
V	B-	4BB-	4a-]	2dd	16dd
.	B-	.	.	.	16cc
.	B-	.	.	.	16dd
.	B-	.	.	.	16f
I	E-	4E-	2g	.	16g
.	E-	.	.	.	16dd
.	E-	.	.	.	16ee-
.	E-	.	.	.	16dd
IV	A-	4AA-	.	2cc	16cc
.	A-	.	.	.	16b-
.	A-	.	.	.	16cc
.	A-	.	.	.	16e-
Vb	B-	4D	[4f	.	16f
.	B-	.	.	.	16ff
.	B-	.	.	.	16dd
.	B-	.	.	.	16cc
=82	=82	=82	=82	=82	=82
Ib	E-	4GG	4f]	2b-	16b-
.	E-	.	.	.	16a
.	E-	.	.	.	16b-
.	E-	.	.	.	16d
vi7	C	4C	4.e-	.	16e-
.	C	.	.	.	16b-
.	C	.	.	.	16cc
.	C	.	.	.	16b-
V7c	B-	8FF	.	4a-	16a-
.	B-	.	.	.	16g
.	B-	8BB-	8d	.	16a-
.	B-	.	.	.	16f
I	E-	8EE-	8e-	4g	16g
.	E-	.	.	.	16f
.	E-	8AA	8e-	.	16g
.	E-	.	.	.	16e-
=83	=83	=83	=83	=83	=83
V	B-	4BB-	4d	4f	2.b-
i	E-	4r	8e-	8g-	.
.	E-	.	8c	8e-	.
Vb	B-	4d	4d	4f	.
ivc	A-	8e-	4r	4r	8cc-
IIc	F	8c	.	.	8a
=84	=84	=84	=84	=84	=84
Vb	B-	4d	4d	4f	2.b-
i	E-	4r	8e-	8g-	.
.	E-	.	8c	8e-	.
Vb	B-	4d	4d	4f	.
ivc	A-	8e-	4r	4r	8cc-
IIc	F	8c	.	.	8a
=85	=85	=85	=85	=85	=85
Vb	B-	4d	2r	2r	8.b-
.	B-	.	.	.	16a
.	B-	2.r	.	.	8.b-
.	B-	.	.	.	16a
iii	G	.	4g	4b-	2b-
iib	F	.	8a-	8cc	.
.	F	.	8f	8a-	.
=86	=86	=86	=86	=86	=86
V7d/ii	C	1B-	1e	1g	4.dd-
.	C	.	.	.	8cc
.	C	.	.	.	[2cc
=87	=87	=87	=87	=87	=87
iib	F	4A-	4f	4a-	16cc]
.	F	.	.	.	16ee
.	F	.	.	.	16ff
.	F	.	.	.	16gg
V7	B-	2.r	2.r	2.r	16aa-
.	B-	.	.	.	16gg
.	B-	.	.	.	16bb-
.	B-	.	.	.	16aa-
iic	F	.	.	.	8ccc
.	F	.	.	.	4.r
=88	=88	=88	=88	=88	=88
V7d	B-	1A-	1d	1f	4.cc-
.	B-	.	.	.	8b-
.	B-	.	.	.	[2b-
=89	=89	=89	=89	=89	=89
Ib	E-	4G	4e-	4g	16b-]
.	E-	.	.	.	16dd
.	E-	.	.	.	16ee-
.	E-	.	.	.	16ff
.	E-	2.r	2.r	2.r	16gg
.	E-	.	.	.	16ff
.	E-	.	.	.	16aa-
.	E-	.	.	.	16gg
.	E-	.	.	.	8bb-
.	r	.	.	.	4r
.	r	.	.	.	16r
.	A-	.	.	.	16aa-
=90	=90	=90	=90	=90	=90
Ib	E-	2r	2r	2r	8gg
.	E-	.	.	.	16r
.	E-	.	.	.	16ff
.	E-	.	.	.	8ee-
.	r	.	.	.	16r
.	E-	.	.	.	16dd
IV	A-	4A-	4A-	4e-	8cc
.	r	.	.	.	4r
.	r	4r	4r	4r	.
.	E-	.	.	.	16r
.	E-	.	.	.	16b-
=91	=91	=91	=91	=91	=91
IV	A-	2r	2r	2r	8a-
Ib	E-	.	.	.	16r
.	E-	.	.	.	16g
ii	F	.	.	.	8f
.	F	.	.	.	16r
.	F	.	.	.	16cc
V7b/IV	E-	4GG	4B-	4d-	4e
iib	F	8AA-	8A-	8c	8f
.	F	8FF	8F	16a-	16cc
.	F	.	.	16f	16a-
=92	=92	=92	=92	=92	=92
Ic	E-	4.BB-	4.B-	4e-	4g
V	B-	.	.	8d	8f
Ib	E-	8GG	8e-	8e-	32e-
.	E-	.	.	.	16.ee-
IV	A-	4.AA-	4.e-	2c	32dd
.	A-	.	.	.	16.cc
.	A-	.	.	.	32b-
.	A-	.	.	.	16.a-
.	A-	.	.	.	32g
.	A-	.	.	.	16.f
vi	C	8AA	16e-	.	32cc
.	C	.	.	.	16.e-
.	C	.	16G	.	.
=93	=93	=93	=93	=93	=93
Ic	E-	8BB-	4G	4.B-	4e-
.	E-	8BB-	.	.	.
V	B-	8BB-	8F	.	8d
V7	B-	8BB-	8f	8d	8a-
.	B-	8BB-	4f	4d	4a-
.	B-	8BB-	.	.	.
Ic	E-	8BB-	8e-	8e-	8g
.	E-	8BB-	8B-	8g	8ee-
=94	=94	=94	=94	=94	=94
.	E-	8BB-	4.B-	4g	4ee-
.	E-	8BB-	.	.	.
V	B-	8BB-	.	8f	8dd
V7	B-	8BB-	8d	8ff	8aa-
.	B-	8BB-	2d	4.ff	4.aa-
.	B-	8BB-	.	.	.
.	B-	8BB-	.	.	.
.	B-	8BB-	.	8f	8a-
=95	=95	=95	=95	=95	=95
I	E-	4E-	8e-	[2e-	8g
.	E-	.	4B-	.	8ee-
V7b/IV	E-	4GG	.	.	8dd-
III	G	.	8G	.	8b
IV	A-	4AA-	4A-	8e-]	4.cc
.	A-	.	.	8e	.
ii	F	4r	4r	8f	.
V7d	B-	.	.	8r	16b-
.	B-	.	.	.	16a-
=96	=96	=96	=96	=96	=96
.	B-	3..r	2r	2r	16g
.	B-	.	.	.	16f
.	B-	.	.	.	16e
.	B-	.	.	.	16f
.	B-	.	.	.	16e
.	B-	.	.	.	16f
.	B-	.	.	.	16a-
.	B-	.	.	.	16f
I	E-	.	8r	8r	4.e-
.	r	24r	.	.	.
i	E-	8AA	8G-	8c	.
Ic	E-	8BB-	8G	8B-	.
V7	B-	8BB-	8A-	8d	8f
=97	=97	=97	=97	=97	=97
I	E-	4E-	4G	16e-	16r
.	E-	.	.	16e-	16g
.	E-	.	.	16a-	16cc
.	E-	.	.	16g	16b-
.	E-	16r	16r	8g	8b-
.	E-	16E-	16G	.	.
.	E-	16A-	16c	8.r	8.r
.	E-	16G	16B-	.	.
.	E-	8G	8B-	.	.
.	E-	.	.	16e-	16g
.	E-	8.r	8.r	16a-	16cc
.	E-	.	.	16g	16b-
.	E-	.	.	8g	8b-
.	E-	16E-	16G	.	.
.	E-	16A-	16c	8r	8r
.	E-	16G	16B-	.	.
=98	=98	=98	=98	=98	=98
.	E-	8G	8B-	16r	16r
.	E-	.	.	16e-	16g
ii7c	F	8.r	8.r	16dd-	16ff
.	F	.	.	16cc	16ee-
vib	C	.	.	8cc	8ee-
.	C	16E-	16G	.	.
v7c	B-	16F	16A-	8b-	8dd-
.	B-	16G	16B-	.	.
iib	F	4A-	4c	4a-	16cc
.	F	.	.	.	16aa-
.	F	.	.	.	16gg
.	F	.	.	.	16ff
.	F	16r	4r	4r	8ccc
.	F	16FF	.	.	.
.	F	16AA-	.	.	8r
.	F	16FF	.	.	.
=99	=99	=99	=99	=99	=99
.	F	16C	2r	2r	2r
.	F	16AA-	.	.	.
.	F	16F	.	.	.
.	F	16C	.	.	.
.	F	16A-	.	.	.
.	F	16F	.	.	.
.	F	16c	.	.	.
.	F	16A-	.	.	.
.	F	4f	[2f	16r	[2aa-
.	F	.	.	16cc	.
.	F	.	.	16aa-	.
.	F	.	.	16cc	.
ivc	A-	4e-	.	16r	.
.	A-	.	.	16cc-	.
.	A-	.	.	16aa-	.
.	A-	.	.	16cc-	.
=100	=100	=100	=100	=100	=100
Vb	B-	4d	4f]	16r	4aa-]
.	B-	.	.	16b-	.
V7b	B-	.	.	16aa-	.
.	B-	.	.	16b-	.
I	E-	4e-	4e-	16r	4gg
.	E-	.	.	16b-	.
.	E-	.	.	16gg	.
.	E-	.	.	16b-	.
iib	F	4A-	4A-	8.cc	16ff
.	F	.	.	.	16ccc
.	F	.	.	.	16aa-
.	F	.	.	16a-	16ff
Ic	E-	8B-	8B-	8g	8ee-
V	B-	8B-	8B-	8f	8dd
=101	=101	=101	=101	=101	=101
I	E-	8E-	8e-	4e-	4ee-
.	E-	8EE-	8r	.	.
.	E-	8r	16g	2.r	2.r
.	E-	.	16e-	.	.
V7d/V	F	8E-	16cc	.	.
.	F	.	16a	.	.
Vb	B-	8D	8b-	.	.
.	B-	8DD	8b-	.	.
IIc	F	8CC	16a	.	.
.	F	.	16cc	.	.
Vc	B-	8FF	16dd	.	.
.	B-	.	16ee-	.	.
=102	=102	=102	=102	=102	=102
.	B-	8BB-	4dd	1r	1r
.	B-	8B-	.	.	.
iib	F	8r	16c	.	.
.	F	.	16A-	.	.
.	F	8AA-	16f	.	.
.	F	.	16d	.	.
Ib	E-	4GG	16e-	.	.
.	E-	.	16f	.	.
.	E-	.	16.g	.	.
.	E-	.	32B-	.	.
IV	A-	8AA-	16c	.	.
.	A-	.	16A-	.	.
V	B-	8BB-	16F	.	.
.	B-	.	16D	.	.
=103	=103	=103	=103	=103	=103
I	E-	8E-	4E-	4.r	4r
.	E-	8EE-	.	.	.
.	E-	2.r	2.r	.	16gg
.	E-	.	.	.	16ee-
V7d/V	F	.	.	8ee-	16ccc
.	F	.	.	.	16aa
Vb	B-	.	.	8dd	8bb-
.	B-	.	.	8d	8bb-
IIc	F	.	.	8c	16aa
.	F	.	.	.	16ccc
Vc	B-	.	.	8f	16ddd
.	B-	.	.	.	16eee-
=104	=104	=104	=104	=104	=104
.	B-	1r	1r	8b-	4ddd
.	B-	.	.	8B-	.
IV	A-	.	.	8r	16cc
.	A-	.	.	.	16a-
V7d	B-	.	.	8A-	16ff
.	B-	.	.	.	16dd
Ib	E-	.	.	4G	16ee-
.	E-	.	.	.	16ff
.	E-	.	.	.	16.gg
.	E-	.	.	.	32b-
IV	A-	.	.	8A-	16cc
.	A-	.	.	.	16a-
V	B-	.	.	8B-	16f
.	B-	.	.	.	16d
=105	=105	=105	=105	=105	=105
I	E-	16EE-	2r	4e-	4e-
.	E-	16E-	.	.	.
.	E-	16BB-	.	.	.
.	E-	16GG	.	.	.
.	E-	8EE-	.	16g	16b-
.	E-	.	.	16e-	16g
IVc	A-	8EE-	.	16a-	16cc
.	A-	.	.	16f	16a-
I	E-	8EE-	16E-	8.g	8.b-
.	E-	.	16G	.	.
.	E-	8EE-	16B-	.	.
.	E-	.	16e-	16b-	16gg
IVc	A-	8EE-	8E-	16cc	16aa-
.	A-	.	.	16a-	16ff
I	E-	8EE-	8r	16g	16ee-
.	E-	.	.	16f	16dd
=106	=106	=106	=106	=106	=106
.	E-	16EE-	2r	8.g	8.ee-
.	E-	16E-	.	.	.
.	E-	16BB-	.	.	.
.	E-	16GG	.	16e-	16g
.	E-	8EE-	.	16g	16b-
.	E-	.	.	16e-	16g
IVc	A-	8EE-	.	16a-	16cc
.	A-	.	.	16f	16a-
I	E-	8EE-	16E-	8.g	8.b-
.	E-	.	16G	.	.
.	E-	8EE-	16B-	.	.
.	E-	.	16e-	16B-	16g
IVc	A-	8EE-	8E-	8c	16a-
.	A-	.	.	.	16f
.	A-	8EE-	8F	8A-	16e-
.	A-	.	.	.	16d
=107	=107	=107	=107	=107	=107
I	E-	16EE-	4E-	4G	[4e-
.	E-	16E-	.	.	.
.	E-	16BB-	.	.	.
.	E-	16GG	.	.	.
.	E-	4EE-	4r	2.r	16e-]
.	E-	.	.	.	16d
.	E-	.	.	.	16f
.	E-	.	.	.	16e-
.	E-	2r	16e-	.	16g
.	E-	.	16d	.	16f
.	E-	.	16f	.	16a-
.	E-	.	16e-	.	16g
iii7d	G	.	16g	.	16b-
.	G	.	16f	.	16a-
.	G	.	16a-	.	16cc
.	G	.	16g	.	16b-
=108	=108	=108	=108	=108	=108
Dim	B-	8E	4b-	1r	4dd-
Dim	B-	8E	.	.	.
VIb	C	8E	8a-	.	8cc
V7b/ii	C	8E	8g	.	8b-
II	F	8F	8f	.	8a
V7/V	F	8F	8cc	.	8ee-
III	G	8F#	8b	.	8dd
II	F	8F#	8a	.	8cc
=109	=109	=109	=109	=109	=109
ii7d	F	[2EE-	2F	2A-	2d
I	E-	4EE-]	4E-	4G	4e-
.	r	4r	4r	4r	4r
==	==	==	==	==	==
*-	*-	*-	*-	*-	*-
!!!RWG1: This file contains only pitch and duration data.
!!!RWG2: Transposing instruments are not transposed.
!!!RWG3: Spines may have incompatible meters.
!!!RWG4: Durations of rests and tied notes may be interpreted.
!!!RWG: Key is interpreted using the Humdrum key tool.
!!!GTL: 6 Divertimentos ("Sun")
!!!AFT: stage1
!!!END: 1997/04/15
!!!KEY: 3333551138
!!!EMD: Converted from MuseData to Humdrum Dec 16, 2000, by Andreas Kornstaedt using muse2kern.
!!!EMD: Manual editing by Craig Sapp, Nov 2001
